assets/img/braze_icons/fast-backward.svg

<svg fill="none" height="24" viewBox="0 0 24 24" width="24" xmlns="http://www.w3.org/2000/svg"><g clip-rule="evenodd" fill="#801ed7" fill-rule="evenodd"><path d="m9.92512 4.22821c.62318-.02333 1.22168.24541 1.61828.72671.3191.38723.3927.86437.424 1.21248.0326.36241.0326.82406.0325 1.35043v8.96427c.0001.5264.0001.988-.0325 1.3504-.0313.3481-.1049.8253-.424 1.2125-.3966.4813-.9951.75-1.61828.7267-.50142-.0187-.9069-.2808-1.18788-.4886-.29254-.2164-.63758-.5232-1.03098-.8729l-5.051-4.4898c-.21045-.187-.41278-.3668-.56966-.5322-.17029-.1795-.35762-.4126-.46754-.7257-.15058-.4288-.15058-.8962 0-1.3251.10992-.3131.29725-.5462.46754-.7257.15687-.1654.35919-.3452.56963-.5322.00855-.0076.0171-.0152.02567-.0228l5.02538-4.467c.3934-.34972.73842-.65645 1.03096-.87285.28098-.20786.68646-.46987 1.18788-.48864z"/><path d="m20.9251 4.22821c.6232-.02333 1.2217.24541 1.6183.72671.3191.38723.3927.86437.424 1.21248.0326.36241.0326.82406.0325 1.35043v8.96427c.0001.5264.0001.988-.0325 1.3504-.0313.3481-.1049.8253-.424 1.2125-.3966.4813-.9951.75-1.6183.7267-.5014-.0187-.9069-.2808-1.1879-.4886-.2925-.2164-.6375-.5232-1.0309-.8729l-5.051-4.4898c-.2105-.187-.4128-.3668-.5697-.5322-.1703-.1795-.3576-.4126-.4675-.7257-.1506-.4288-.1506-.8962 0-1.3251.1099-.3131.2972-.5462.4675-.7257.1569-.1654.3592-.3452.5696-.5322.0086-.0076.0171-.0152.0257-.0228l5.0254-4.467c.3934-.34972.7384-.65645 1.0309-.87285.281-.20786.6865-.46987 1.1879-.48864z"/></g></svg>

<svg width="24" height="24" viewBox="0 0 24 24" fill="none" xmlns="http://www.w3.org/2000/svg">
<path fill-rule="evenodd" clip-rule="evenodd" d="M9.92512 4.22821C10.5483 4.20488 11.1468 4.47362 11.5434 4.95492C11.8625 5.34215 11.9361 5.81929 11.9674 6.1674C12 6.52981 12 6.99146 11.9999 7.51783V16.4821C12 17.0085 12 17.4701 11.9674 17.8325C11.9361 18.1806 11.8625 18.6578 11.5434 19.045C11.1468 19.5263 10.5483 19.795 9.92512 19.7717C9.4237 19.753 9.01822 19.4909 8.73724 19.2831C8.4447 19.0667 8.09966 18.7599 7.70626 18.4102L2.65526 13.9204C2.44481 13.7334 2.24248 13.5536 2.0856 13.3882C1.91531 13.2087 1.72798 12.9756 1.61806 12.6625C1.46748 12.2337 1.46748 11.7663 1.61806 11.3374C1.72798 11.0243 1.91531 10.7912 2.0856 10.6117C2.24247 10.4463 2.44479 10.2665 2.65523 10.0795C2.66378 10.0719 2.67233 10.0643 2.6809 10.0567L7.70628 5.5897C8.09968 5.23998 8.4447 4.93325 8.73724 4.71685C9.01822 4.50899 9.4237 4.24698 9.92512 4.22821Z" fill="#801ED7"/>
<path fill-rule="evenodd" clip-rule="evenodd" d="M20.9251 4.22821C21.5483 4.20488 22.1468 4.47362 22.5434 4.95492C22.8625 5.34215 22.9361 5.81929 22.9674 6.1674C23 6.52981 23 6.99146 22.9999 7.51783V16.4821C23 17.0085 23 17.4701 22.9674 17.8325C22.9361 18.1806 22.8625 18.6578 22.5434 19.045C22.1468 19.5263 21.5483 19.795 20.9251 19.7717C20.4237 19.753 20.0182 19.4909 19.7372 19.2831C19.4447 19.0667 19.0997 18.7599 18.7063 18.4102L13.6553 13.9204C13.4448 13.7334 13.2425 13.5536 13.0856 13.3882C12.9153 13.2087 12.728 12.9756 12.6181 12.6625C12.4675 12.2337 12.4675 11.7663 12.6181 11.3374C12.728 11.0243 12.9153 10.7912 13.0856 10.6117C13.2425 10.4463 13.4448 10.2665 13.6552 10.0795C13.6638 10.0719 13.6723 10.0643 13.6809 10.0567L18.7063 5.5897C19.0997 5.23998 19.4447 4.93325 19.7372 4.71685C20.0182 4.50899 20.4237 4.24698 20.9251 4.22821Z" fill="#801ED7"/>
</svg>
